svg/OSM-icons/man_made #fabe0b °373737 !label=enman made,deKünstliches/22109;man_made=water_tank;!water_tank..volume=;!label=enwater tank,deWassertank.svg

<svg xmlns="http://www.w3.org/2000/svg" viewBox="0 0 580 580" enable-background="new 0 0 580 580"><path fill="#111" stroke="#eee" stroke-width="3.408" d="m66.28 1.768c-41.34 0-64.57 21.371-64.57 65.04v450.12c0 40.844 20.895 62.23 62.19 62.23h452.02c41.31 0 62.23-20.315 62.23-62.23v-450.12c0-42.602-20.923-65.04-63.52-65.04-.003 0-448.5-.143-448.35 0z"/><g fill="#fff"><path d="m292.38 58.26c38.996 0 75.66 15.186 103.23 42.76s42.76 64.24 42.76 103.23v127.03 31.755 123.06c0 19.651-15.987 35.639-35.638 35.639h-225.47c-19.651 0-35.638-15.987-35.638-35.639v-123.06-31.755-127.03c0-38.996 15.186-75.66 42.76-103.23s64.24-42.76 103.23-42.76h4.764m0-12h-4.764c-87.26 0-157.99 70.73-157.99 157.99v127.03 31.755 123.06c0 26.31 21.328 47.639 47.638 47.639h225.47c26.31 0 47.638-21.329 47.638-47.639v-123.06-31.755-127.03c0-87.26-70.74-157.99-157.99-157.99z"/><path d="m288.01 134.8c78.08 87.29-132.29 59.23-132.29 132.29v57.48 26.59 103.04c0 22.03 17.858 39.889 39.888 39.889h188.79c22.03 0 39.888-17.858 39.888-39.889v-103.04-26.59-46.979c0-73.06-18.722-181.7-136.28-142.79"/></g></svg>

<?xml version="1.0" encoding="utf-8"?>
<!-- Generator: Adobe Illustrator 15.0.0, SVG Export Plug-In . SVG Version: 6.00 Build 0)  -->
<!DOCTYPE svg PUBLIC "-//W3C//DTD SVG 1.1//EN" "http://www.w3.org/Graphics/SVG/1.1/DTD/svg11.dtd">
<svg version="1.1" xmlns="http://www.w3.org/2000/svg" xmlns:xlink="http://www.w3.org/1999/xlink" x="0px" y="0px" width="580px"
	 height="580px" viewBox="0 0 580 580" enable-background="new 0 0 580 580" xml:space="preserve">
<g id="Layer_1">
	<g id="Layer_2">
		<g id="g1327">
			<path id="path1329" fill="#111111" stroke="#EEEEEE" stroke-width="3.408" d="M66.275,1.768
				c-41.335,0-64.571,21.371-64.571,65.036v450.123c0,40.844,20.895,62.229,62.192,62.229h452.024
				c41.307,0,62.229-20.315,62.229-62.229V66.804c0-42.602-20.923-65.036-63.521-65.036C514.625,1.768,66.133,1.625,66.275,1.768z"
				/>
		</g>
	</g>
</g>
<g id="Layer_2_1_">
	<path fill="#FFFFFF" d="M292.382,58.262c38.996,0,75.658,15.186,103.232,42.76s42.76,64.236,42.76,103.232v127.031v31.755v123.058
		c0,19.651-15.987,35.639-35.638,35.639H177.264c-19.651,0-35.638-15.987-35.638-35.639V363.041v-31.755V204.255
		c0-38.996,15.186-75.658,42.76-103.232s64.236-42.76,103.232-42.76H292.382 M292.382,46.262h-4.764
		c-87.257,0-157.992,70.735-157.992,157.992v127.031v31.755v123.058c0,26.31,21.328,47.639,47.638,47.639h225.472
		c26.31,0,47.638-21.329,47.638-47.639V363.041v-31.755V204.255C450.374,116.997,379.638,46.262,292.382,46.262L292.382,46.262z"/>
	<path fill="#FFFFFF" d="M288.006,134.801c78.081,87.292-132.29,59.228-132.29,132.29v57.478v26.59v103.038
		c0,22.03,17.858,39.889,39.888,39.889h188.792c22.029,0,39.888-17.858,39.888-39.889V351.159v-26.59v-46.979
		C424.284,204.528,405.562,95.892,288.006,134.801z"/>
</g>
</svg>
